public/images/backgrounds/side_panel_background.svg

<svg width="350" height="981" viewBox="0 0 350 981" fill="none" xmlns="http://www.w3.org/2000/svg">
<path d="M399.618 -24.8852V-8.23451C374.824 -23.6958 345.389 -32.6819 313.965 -32.6819C268.62 -32.6819 227.65 -14.1812 198.215 15.6842L27.9704 188.534C12.4574 204.392 -9.28728 214.038 -33.1533 214.038C-80.4877 214.038 -118.806 175.848 -118.806 128.671C-118.806 81.4939 -80.3551 43.3032 -33.1533 43.3032C-9.15468 43.3032 12.4574 53.0821 27.9704 68.8077L59.394 100.788L112.827 46.4747L82.4647 15.6842C53.0299 -14.1812 12.0597 -32.6819 -33.2858 -32.6819C-64.7094 -32.6819 -94.0118 -23.6958 -118.939 -8.23451V-131H-203V282.491H-118.939V265.84C-94.0118 281.302 -64.5769 290.42 -33.2858 290.42C12.0597 290.42 53.0299 271.787 82.4647 242.054L252.709 68.8077C268.222 52.95 289.967 43.3032 313.833 43.3032C361.167 43.3032 399.485 81.4939 399.485 128.671C399.485 175.848 361.167 214.17 313.833 214.17C289.834 214.17 268.222 204.259 252.709 188.534L221.418 156.686L167.985 210.999L198.215 241.789C227.65 271.655 268.62 290.155 313.965 290.155C345.389 290.155 374.824 281.169 399.618 265.576V282.227H483.812V-24.8852H399.618Z" fill="url(#paint0_linear_1592_877)"/>
<path d="M399.618 222.115V238.765C374.824 223.304 345.389 214.318 313.965 214.318C268.62 214.318 227.65 232.819 198.215 262.684L27.9704 435.534C12.4574 451.392 -9.28728 461.038 -33.1533 461.038C-80.4877 461.038 -118.806 422.848 -118.806 375.671C-118.806 328.494 -80.3551 290.303 -33.1533 290.303C-9.15468 290.303 12.4574 300.082 27.9704 315.808L59.394 347.788L112.827 293.475L82.4647 262.684C53.0299 232.819 12.0597 214.318 -33.2858 214.318C-64.7094 214.318 -94.0118 223.304 -118.939 238.765V116H-203V529.491H-118.939V512.84C-94.0118 528.302 -64.5769 537.42 -33.2858 537.42C12.0597 537.42 53.0299 518.787 82.4647 489.054L252.709 315.808C268.222 299.95 289.967 290.303 313.833 290.303C361.167 290.303 399.485 328.494 399.485 375.671C399.485 422.848 361.167 461.17 313.833 461.17C289.834 461.17 268.222 451.259 252.709 435.534L221.418 403.686L167.985 457.999L198.215 488.789C227.65 518.655 268.62 537.155 313.965 537.155C345.389 537.155 374.824 528.169 399.618 512.576V529.227H483.812V222.115H399.618Z" fill="url(#paint1_linear_1592_877)"/>
<path d="M399.618 469.115V485.766C374.824 470.304 345.389 461.318 313.965 461.318C268.62 461.318 227.65 479.819 198.215 509.684L27.9704 682.534C12.4574 698.392 -9.28728 708.038 -33.1533 708.038C-80.4877 708.038 -118.806 669.848 -118.806 622.671C-118.806 575.494 -80.3551 537.303 -33.1533 537.303C-9.15468 537.303 12.4574 547.082 27.9704 562.808L59.394 594.788L112.827 540.475L82.4647 509.684C53.0299 479.819 12.0597 461.318 -33.2858 461.318C-64.7094 461.318 -94.0118 470.304 -118.939 485.766V363H-203V776.491H-118.939V759.84C-94.0118 775.302 -64.5769 784.42 -33.2858 784.42C12.0597 784.42 53.0299 765.787 82.4647 736.054L252.709 562.808C268.222 546.95 289.967 537.303 313.833 537.303C361.167 537.303 399.485 575.494 399.485 622.671C399.485 669.848 361.167 708.17 313.833 708.17C289.834 708.17 268.222 698.259 252.709 682.534L221.418 650.686L167.985 704.999L198.215 735.789C227.65 765.655 268.62 784.155 313.965 784.155C345.389 784.155 374.824 775.169 399.618 759.576V776.227H483.812V469.115H399.618Z" fill="url(#paint2_linear_1592_877)"/>
<path d="M399.618 716.115V732.766C374.824 717.304 345.389 708.318 313.965 708.318C268.62 708.318 227.65 726.819 198.215 756.684L27.9704 929.534C12.4574 945.392 -9.28728 955.038 -33.1533 955.038C-80.4877 955.038 -118.806 916.848 -118.806 869.671C-118.806 822.494 -80.3551 784.303 -33.1533 784.303C-9.15468 784.303 12.4574 794.082 27.9704 809.808L59.394 841.788L112.827 787.475L82.4647 756.684C53.0299 726.819 12.0597 708.318 -33.2858 708.318C-64.7094 708.318 -94.0118 717.304 -118.939 732.766V610H-203V1023.49H-118.939V1006.84C-94.0118 1022.3 -64.5769 1031.42 -33.2858 1031.42C12.0597 1031.42 53.0299 1012.79 82.4647 983.054L252.709 809.808C268.222 793.95 289.967 784.303 313.833 784.303C361.167 784.303 399.485 822.494 399.485 869.671C399.485 916.848 361.167 955.17 313.833 955.17C289.834 955.17 268.222 945.259 252.709 929.534L221.418 897.686L167.985 951.999L198.215 982.789C227.65 1012.65 268.62 1031.16 313.965 1031.16C345.389 1031.16 374.824 1022.17 399.618 1006.58V1023.23H483.812V716.115H399.618Z" fill="url(#paint3_linear_1592_877)"/>
<defs>
<linearGradient id="paint0_linear_1592_877" x1="-2.50001" y1="470.5" x2="347" y2="470.5" gradientUnits="userSpaceOnUse">
<stop stop-color="#29252B"/>
<stop offset="1" stop-color="#29252B" stop-opacity="0"/>
</linearGradient>
<linearGradient id="paint1_linear_1592_877" x1="-2.50001" y1="470.5" x2="347" y2="470.5" gradientUnits="userSpaceOnUse">
<stop stop-color="#29252B"/>
<stop offset="1" stop-color="#29252B" stop-opacity="0"/>
</linearGradient>
<linearGradient id="paint2_linear_1592_877" x1="-2.50001" y1="470.5" x2="347" y2="470.5" gradientUnits="userSpaceOnUse">
<stop stop-color="#29252B"/>
<stop offset="1" stop-color="#29252B" stop-opacity="0"/>
</linearGradient>
<linearGradient id="paint3_linear_1592_877" x1="-2.50001" y1="470.5" x2="347" y2="470.5" gradientUnits="userSpaceOnUse">
<stop stop-color="#29252B"/>
<stop offset="1" stop-color="#29252B" stop-opacity="0"/>
</linearGradient>
</defs>
</svg>

<svg xmlns="http://www.w3.org/2000/svg" width="350" height="981" fill="none"><path fill="url(#a)" d="M399.618-24.885v16.65c-24.794-15.46-54.229-24.447-85.653-24.447-45.345 0-86.315 18.5-115.75 48.366L27.97 188.534c-15.513 15.858-37.257 25.504-61.123 25.504-47.335 0-85.653-38.19-85.653-85.367s38.45-85.368 85.653-85.368c23.998 0 45.61 9.78 61.123 25.505l31.424 31.98 53.433-54.313-30.362-30.79C53.03-14.182 12.06-32.683-33.285-32.683c-31.424 0-60.727 8.986-85.654 24.447V-131H-203v413.491h84.061V265.84c24.927 15.462 54.362 24.58 85.653 24.58 45.346 0 86.316-18.633 115.75-48.366L252.71 68.808c15.513-15.858 37.258-25.505 61.124-25.505 47.334 0 85.652 38.19 85.652 85.368s-38.318 85.499-85.652 85.499c-23.999 0-45.611-9.911-61.124-25.636l-31.291-31.848-53.433 54.313 30.23 30.79c29.435 29.866 70.405 48.366 115.75 48.366 31.424 0 60.859-8.986 85.653-24.579v16.651h84.194V-24.885z"/><path fill="url(#b)" d="M399.618 222.115v16.65c-24.794-15.461-54.229-24.447-85.653-24.447-45.345 0-86.315 18.501-115.75 48.366L27.97 435.534c-15.513 15.858-37.257 25.504-61.123 25.504-47.335 0-85.653-38.19-85.653-85.367s38.45-85.368 85.653-85.368c23.998 0 45.61 9.779 61.123 25.505l31.424 31.98 53.433-54.313-30.362-30.791c-29.435-29.865-70.405-48.366-115.75-48.366-31.424 0-60.727 8.986-85.654 24.447V116H-203v413.491h84.061V512.84c24.927 15.462 54.362 24.58 85.653 24.58 45.346 0 86.316-18.633 115.75-48.366L252.71 315.808c15.513-15.858 37.258-25.505 61.124-25.505 47.334 0 85.652 38.191 85.652 85.368s-38.318 85.499-85.652 85.499c-23.999 0-45.611-9.911-61.124-25.636l-31.291-31.848-53.433 54.313 30.23 30.79c29.435 29.866 70.405 48.366 115.75 48.366 31.424 0 60.859-8.986 85.653-24.579v16.651h84.194V222.115z"/><path fill="url(#c)" d="M399.618 469.115v16.651c-24.794-15.462-54.229-24.448-85.653-24.448-45.345 0-86.315 18.501-115.75 48.366L27.97 682.534c-15.513 15.858-37.257 25.504-61.123 25.504-47.335 0-85.653-38.19-85.653-85.367s38.45-85.368 85.653-85.368c23.998 0 45.61 9.779 61.123 25.505l31.424 31.98 53.433-54.313-30.362-30.791c-29.435-29.865-70.405-48.366-115.75-48.366-31.424 0-60.727 8.986-85.654 24.448V363H-203v413.491h84.061V759.84c24.927 15.462 54.362 24.58 85.653 24.58 45.346 0 86.316-18.633 115.75-48.366L252.71 562.808c15.513-15.858 37.258-25.505 61.124-25.505 47.334 0 85.652 38.191 85.652 85.368s-38.318 85.499-85.652 85.499c-23.999 0-45.611-9.911-61.124-25.636l-31.291-31.848-53.433 54.313 30.23 30.79c29.435 29.866 70.405 48.366 115.75 48.366 31.424 0 60.859-8.986 85.653-24.579v16.651h84.194V469.115z"/><path fill="url(#d)" d="M399.618 716.115v16.651c-24.794-15.462-54.229-24.448-85.653-24.448-45.345 0-86.315 18.501-115.75 48.366L27.97 929.534c-15.513 15.858-37.257 25.504-61.123 25.504-47.335 0-85.653-38.19-85.653-85.367s38.45-85.368 85.653-85.368c23.998 0 45.61 9.779 61.123 25.505l31.424 31.98 53.433-54.313-30.362-30.791c-29.435-29.865-70.405-48.366-115.75-48.366-31.424 0-60.727 8.986-85.654 24.448V610H-203v413.49h84.061v-16.65c24.927 15.46 54.362 24.58 85.653 24.58 45.346 0 86.316-18.63 115.75-48.366L252.71 809.808c15.513-15.858 37.258-25.505 61.124-25.505 47.334 0 85.652 38.191 85.652 85.368s-38.318 85.499-85.652 85.499c-23.999 0-45.611-9.911-61.124-25.636l-31.291-31.848-53.433 54.313 30.23 30.79c29.435 29.861 70.405 48.371 115.75 48.371 31.424 0 60.859-8.99 85.653-24.58v16.65h84.194V716.115z"/><defs><linearGradient id="a" x1="-2.5" x2="347" y1="470.5" y2="470.5" gradientUnits="userSpaceOnUse"><stop stop-color="#29252B"/><stop offset="1" stop-color="#29252B" stop-opacity="0"/></linearGradient><linearGradient id="b" x1="-2.5" x2="347" y1="470.5" y2="470.5" gradientUnits="userSpaceOnUse"><stop stop-color="#29252B"/><stop offset="1" stop-color="#29252B" stop-opacity="0"/></linearGradient><linearGradient id="c" x1="-2.5" x2="347" y1="470.5" y2="470.5" gradientUnits="userSpaceOnUse"><stop stop-color="#29252B"/><stop offset="1" stop-color="#29252B" stop-opacity="0"/></linearGradient><linearGradient id="d" x1="-2.5" x2="347" y1="470.5" y2="470.5" gradientUnits="userSpaceOnUse"><stop stop-color="#29252B"/><stop offset="1" stop-color="#29252B" stop-opacity="0"/></linearGradient></defs></svg>
